src/assets/icon-20-create.svg

<?xml version="1.0" encoding="UTF-8"?>
<svg width="20px" height="20px" viewBox="0 0 20 20" version="1.1" xmlns="http://www.w3.org/2000/svg" xmlns:xlink="http://www.w3.org/1999/xlink">
    <g id="Assets" stroke="none" stroke-width="1" fill="none" fill-rule="evenodd">
        <g id="icon-20-create" fill="#27322F">
            <path d="M17.284,6.524 L15.916,7.892 L13.108,5.084 L14.476,3.716 C14.6200007,3.57199928 14.796999,3.5 15.007,3.5 C15.2170011,3.5 15.3939993,3.57199928 15.538,3.716 L17.284,5.462 C17.4280007,5.60600072 17.5,5.78299895 17.5,5.993 C17.5,6.20300105 17.4280007,6.37999928 17.284,6.524 Z M4,14.192 L12.298,5.894 L15.106,8.702 L6.808,17 L4,17 L4,14.192 Z" id="create"></path>
        </g>
    </g>
</svg>

<svg width="20" height="20" xmlns="http://www.w3.org/2000/svg"><path d="M17.284 6.524l-1.368 1.368-2.808-2.808 1.368-1.368a.722.722 0 0 1 .531-.216c.21 0 .387.072.531.216l1.746 1.746a.722.722 0 0 1 .216.531c0 .21-.072.387-.216.531zM4 14.192l8.298-8.298 2.808 2.808L6.808 17H4v-2.808z" fill="#27322F" fill-rule="evenodd"/></svg>
